!!!!SEGMENT: pl-wnifc--2372-n_mikuli-karol--reverie-op-9.krn
!!!cenid: 18xx:3888
!!!COM: Mikuli, Karol
!!!COM-rismID: pe106110
!!!CDT: 1819-1897
!!!CNT:
!!!OTL: Reverie op. 9
!!!PDT: 1866
!!!AGN:
!!!SMS-siglum: PL-Wnifc
!!!SMS-shelfmark: 2372/n
!!!SMS-shelfwork: W
!!!SMS-variant:
!!!SMS-altvar:
!!!NIFC-rismSourceID: 300605263
!!!NIFC-rismChildID: 300605263
!!!NIFC-islandoraID: nifc:211955
!!!URL-pdf-islandora: https://repozytorium.nifc.pl/islandora/object/nifc%3A211955/datastream/PDF/view
!!!URL-scan: https://polish.musicsources.pl/pl/lokalizacje/galeria/druki-muzyczne/16817 @EN{Scan on Polish Music Sources Website} @PL{Skany w portalu Dziedzictwo Muzyki Polskiej w otwartym dostępie}
!!!IIIF:
!!!ONB-nifc:
!!!OMD: Adagio come un Recitatif dans le style d’une „Doina” moldare.
!!!AIN: 1 piano
!!!key: D
!!!filter-modern: sic -sq | shed -k -e "s/:TUP:/:tup:/L" | shed -e "s/:rj/:RJ/L" | shed -k -e "s/([^a-gA-Gn#X-])[<>]/$1/g" | shed -e "s/LO:DY:(a|b|rj)/LO:dy:$1/L" | shed -e "s/-//B" | autostem -r | tie -s  | modori -m 
**kern	**kern	**fing	**dynam
*part1	*part1	*part1	*part1
*staff2	*staff1	*staff1	*
*I"Piano.	*I"Piano.	*	*
*I'	*I'	*	*
*Ipiano	*Ipiano	*	*
*mI"Pianoforte	*mI"Pianoforte	*	*
*mI'pf	*mI'pf	*	*
*ICklav	*ICklav	*	*
*clefF4	*clefG2	*	*
*kcancel	*kcancel	*	*
*k[f#c#]	*k[f#c#]	*	*
*D:	*D:	*	*
*M4/4	*M4/4	*	*
*met(c)	*met(c)	*	*
4r	4ff#\	.	p
=1	=1	=1	=1
*ped	*	*	*
!	!LO:TX:b:i:t=dolente.:mod=dolente	!	!
(16GG\LL	(8..bb^\L	.	.
16E\	.	.	.
16B\	.	.	.
16g\JJ)	.	.	.
.	32ee\Jkk)	.	.
!	!LO:TUP:a:problem=klamra łukowa	!	!
4r	28ee\LL	.	.
.	28ee\	.	.
.	28ee\	.	.
.	28ee\	.	.
.	28ee\	.	.
.	28ee\	.	.
*Xped	*	*	*
.	28ee\JJ	.	.
*ped	*	*	*
(16AA\LL	[8ee\L	.	.
16E\	.	.	<
16A\	(32ee\LL]	.	.
.	32ff#\	.	.
16g\JJ)	32ee\	.	.
.	32ff#\JJJ)	.	[
!	!LO:TX:b:i:t=riten.	!	!
4r	(32.aa\LLL	.	.
.	64gg\K	.	.
.	32ff#\	.	>
.	32ee\JJ	.	.
.	64.dd\LLL	.	.
.	128cc#\K	.	.
!	!LO:MO:mod=*null:null	!	!
*	*rscale:1/2	*	*
!	!LO:TUP:a:problem=klamra łukowa	!	!
.	96cc#\	.	.
.	96dd\	.	.
*Xped	*	*	*
.	96cc#\JJJ	.	.
*	*rscale:1	*	*
.	64b\LLL	.	.
.	64cc#\	.	.
.	64dd\	.	.
.	64ee\JJJJ)	.	]
!!LO:LB:g=original
=2	=2	=2	=2
*^	*	*	*
*ped	*	*	*	*
(16DD\LL	8ryy	4.ff#\	.	.
16D\	.	.	.	.
[[16F#\	8F#/	.	.	.
!LO:SIC:s=[16f#\JJ)	!	!	!	!
16f#\JJ)	.	.	.	.
!LO:SIC:s=4f#] 4A 4F#\]]	!	!	!	!
4f# 4A 4F#\]]	4ryy	.	.	.
*Xped	*	*	*	*
.	.	[8ff#\	.	.
*ped	*	*	*	*
!	!	!LO:TUP:a:problem=klamra łukowa	!	!
(16DD\LL	2ryy	6ff#\]	.	.
16D\	.	.	.	.
[[<16F#\	.	.	.	.
.	.	[12ff#\	.	.
[16f#\JJ)	.	.	.	.
4f#] 4A#X 4F#\]]	.	16ff#\LL]	.	<
.	.	16ff#\	.	.
.	.	16ff#\	.	.
*Xped	*	*	*	*
.	.	16ff#\JJ	.	[
*v	*v	*	*	*
=3	=3	=3	=3
*ped	*	*	*
([[16CC#\LL	(8..ff#^\L	.	>
[[16C#\	.	.	.
[[16G\	.	.	.
!LO:SIC:s=[16eJJ	!	!	!
16e\JJ)	.	.	.
.	32b\Jkk)	.	]
!LO:SIC:s=4e] 4G]] 4C#]] 4CC#\]]	!LO:TUP:a:problem=klamra łukowa	!	!
4e 4G]] 4C#]] 4CC#\]]	28b\LL	.	.
.	28b\	.	.
.	28b\	.	.
.	28b\	.	.
.	28b\	.	.
.	28b\	.	.
*Xped	*	*	*
.	28b\JJ	.	.
*ped	*	*	*
([[<16FF#\LL	(16.b^\LL	.	.
[[16C#\	.	.	.
.	32a#X\JJk)	.	.
!	!LO:TUP:a:problem=klamra łukowa	!	!
[[16F#\	48a#\LLL	.	.
.	48b\	.	.
.	48a#\JJ	.	.
!	!LO:MO:mod=*null:null	!	!
*Xped	*rscale:2	*	*
!	!LO:TUP:a:problem=klamra łukowa	!	!
[16e\JJ)	80g#X\LLL	.	<
.	80a#\	.	.
.	80b\	.	.
.	80cc#\	.	.
.	80dd\JJJJ	.	[
*	*rscale:1	*	*
!	!LO:TUP:a:problem=klamra łukowa	!	!
4e] 4F#]] 4C#]] 4FF#\]]	[12ff#\L	.	.
.	48ff#\LL]	.	.
.	48ee\	.	>
.	48dd\	.	.
.	48cc#\JJ	.	.
.	48cc#\LL	.	.
.	48ee\	.	.
.	48dd\	.	.
.	48cc#\JJJ	.	]
!!LO:LB:g=original
=4	=4	=4	=4
!LO:TUP:a:problem=klamra łukowa	!	!	!
20r	(8cc#^<\L	.	.
*ped	*	*	*
20GG\LL	.	.	.
20G\	.	.	.
.	[8b\J)	.	.
20d\	.	.	.
20g\JJ	.	.	.
*Xped	*	*	*
!	!LO:TUP:b:r=8:problem=klamra łukowa	!	!
4r	24b/LL]	.	.
.	24b/	.	.
.	24b-X/J	.	.
!	!LO:TUP:b:r=8:problem=klamra łukowa	!	!
.	24a/L	.	.
.	24g#X/	.	.
.	24gn/JJ	.	.
!	!	!	!LO:MO:mod=!LO&colon;HP&colon;t=cresc. molto
!	!	!	!LO:HP:t=cresc. molto.
16r	[4f#/	.	<
*ped	*	*	*
(16DD\LL	.	.	.
16D\	.	.	.
16A\JJ)	.	.	.
*Xped	*	*	*
!	!LO:TUP:b:problem=klamra łukowa	!	!
4r	28f#/LL]	.	.
.	28f#/	.	.
.	28fn/	.	.
.	28e/	.	.
.	28e-X/	.	.
.	28d/	.	.
.	28c#/JJ	.	.
=5	=5	=5	=5
*ped	*	*	*
!LO:TUP:a:problem=klamra łukowa	!	!	!
10r	[2cn/	.	f
10EEE/L	.	.	.
10EE/	.	.	.
10Cn/	.	.	.
10A#X/J	.	.	.
!	!LO:TUP:a:problem=klamra łukowa	!	!
4g\	20c/LL]	.	.
.	20c/	.	.
.	20c/	.	.
.	20c/	.	.
.	20c/JJ	.	.
!	!LO:MO:mod=*null:null	!	!
*Xped	*Xtuplet	*	*
4r	(48.c;/LLL	.	>
.	96d/K	.	.
.	48c/	.	.
.	48d/JJ)	.	.
!	!LO:TX:b:i:t=accelerando.:mod=accelerando	!	!
.	(48e/LL	.	.
.	48d/	.	.
.	48c/	.	.
.	48B/JJ)	.	.
.	(48B/LL	.	.
.	48d/	.	.
.	48c/	.	.
.	48B/JJJ)	.	]]
!!LO:LB:g=original
=6	=6	=6	=6
!!!OMD:
!!!OMD-mod: A tempo
!	!LO:TX:b:B:t=a tempo.:mod=	!	!
4r	8B</L	.	.
.	.	.	<
.	8A#X</	.	.
*ped	*	*	*
4A#y 4F# 4E 4FF#\	8.d</	.	.
*Xped	*	*	*
.	16A#</Jk	.	[
4r	8.c#<^/L	.	>
.	16B</Jk	.	]
*ped	*	*	*
(16qqBBB\LL	.	.	.
16qqBB\JJ	.	.	.
16qqD/LL	.	.	.
16qqF#/	.	.	.
16qqB/	.	.	.
16qqd/JJ)	.	.	.
4ryy	4ff#\	.	p
*Xped	*	*	*
=7	=7	=7	=7
*ped	*	*	*
(16GG\LL	(8..bb^\L	.	.
16E\	.	.	.
16B\	.	.	.
16g\JJ)	.	.	.
.	32ee\Jkk)	.	.
*	*tuplet	*	*
!	!LO:TUP:a:problem=klamra łukowa	!	!
4r	28ee\LL	.	.
.	28ee\	.	.
.	28ee\	.	.
.	28ee\	.	.
.	28ee\	.	.
*Xped	*	*	*
.	28ee\	.	.
.	28ee\JJ	.	.
*ped	*	*	*
(16AA\LL	[8ee\L	.	<
16E\	.	.	.
16A\	(32ee\LL]	.	.
.	32ff#\	.	.
16g\JJ)	32ee\	.	.
.	32ff#\JJJ)	.	[
4r	(32.aa\LLL	.	>
.	64gg\K	.	.
.	32ff#\	.	.
.	32ee\JJ	.	.
.	64.dd\LLL	.	.
.	128cc#\K	.	.
!	!LO:MO:mod=*null:null	!	!
*Xped	*rscale:1/2	*	*
!	!LO:TUP:a:problem=klamra łukowa	!	!
.	96cc#\	.	.
.	96dd\	.	.
.	96cc#\JJJ	.	.
*	*rscale:1	*	*
.	64b\LLL	.	.
.	64cc#\	.	.
.	64dd\	.	.
.	64ee\JJJJ)	.	]
!!LO:PB:g=original
=8	=8	=8	=8
*^	*	*	*
*ped	*	*	*	*
(16DD\LL	8ryy	4.ff#\	.	.
16D\	.	.	.	.
16F#\	[[8F#/	.	.	.
[16f#\JJ)	.	.	.	.
*Xped	*	*	*	*
4f#] 4A 4F#\]]	4ryy	.	.	.
.	.	[8ff#\	.	.
*ped	*	*	*	*
!	!	!LO:TUP:a:problem=klamra łukowa	!	!
(16DD\LL	8ryy	6ff#\]	.	.
16D\	.	.	.	.
16F#\	[[8F#/	.	.	.
.	.	[12ff#\	.	.
[16f#\JJ)	.	.	.	.
4f#] 4A#X 4F#\]]	4ryy	16ff#\LL]	.	<
.	.	16ff#\	.	.
.	.	16ff#\	.	.
*Xped	*	*	*	*
.	.	16ff#\JJ	.	[
*v	*v	*	*	*
=9	=9	=9	=9
*ped	*	*	*
([[16CC#\LL	(8..ff#^\L	.	>
[[16C#\	.	.	.
[[16G\	.	.	.
[16e\JJ)	.	.	.
.	32b\Jkk)	.	]
!	!LO:TUP:a:problem=klamra łukowa	!	!
4e] 4G]] 4C#]] 4CC#\]]	28b\LL	.	.
.	28b\	.	.
.	28b\	.	.
.	28b\	.	.
.	28b\	.	.
.	28b\	.	.
*Xped	*	*	*
.	28b\JJ	.	.
*ped	*	*	*
([[16FF#\LL	16.b\LL	.	<
[[16C#\	.	.	.
.	32a#X\JJk	.	.
!	!LO:TUP:a:problem=klamra łukowa	!	!
[[16F#\	48a#\LLL	.	.
.	48b\	.	.
*Xped	*	*	*
.	48a#\JJ	.	.
!	!LO:MO:mod=*null:null	!	!
*	*rscale:2	*	*
!	!LO:TUP:a:problem=klamra łukowa	!	!
[16e\JJ)	80g#X\LLL	.	.
.	80a#\	.	.
.	80b\	.	.
.	80cc#\	.	.
.	80dd\JJJJ	.	[
*	*rscale:1	*	*
!	!LO:MO:mod=*null:null	!	!
*	*Xtuplet	*	*
!	!LO:TUP:a:problem=klamra łukowa	!	!
4e] 4F#]] 4C#]] 4FF#\]]	[12ff#\L	.	>
.	(48ff#\LL]	.	.
.	48ee\	.	.
.	48dd\	.	.
.	48cc#\JJ)	.	.
.	(48cc#\LL	.	.
.	48ee\	.	.
.	48dd\	.	.
.	48cc#\JJJ)	.	]]
!!LO:LB:g=original
=10	=10	=10	=10
*ped	*	*	*
!LO:TUP:a:problem=klamra łukowa	!	!	!
20r	(8cc#^\L	.	.
20GG\LL	.	.	.
20G\	.	.	.
.	[8b\J)	.	.
20d\	.	.	.
20g\JJ	.	.	.
*Xped	*tuplet	*	*
!	!LO:TUP:b:r=8:problem=klamra łukowa	!	!
4r	24b/LL]	.	.
!	!	!	!LO:HP:t=cresc. molto
.	24b/	.	<
.	24b-X/J	.	.
!	!LO:TUP:b:r=8:problem=klamra łukowa	!	!
.	24a/L	.	.
.	24g#X/	.	.
.	24gn/JJ	.	.
16r	[4f#/	.	.
*ped	*	*	*
(16DD\LL	.	.	.
16D\	.	.	.
16A\JJ)	.	.	.
*Xped	*	*	*
!	!LO:TUP:b:problem=klamra łukowa	!	!
4r	28f#/LL]	.	.
.	28f#/	.	.
.	28fn/	.	.
.	28e/	.	.
.	28e-X/	.	.
.	28d/	.	.
.	28c#/JJ	.	.
=11	=11	=11	=11
!LO:N:vis=20r	!	!	!
!LO:TUP:a:problem=klamra łukowa	!	!	!
10r	[2cn/	.	f
*ped	*	*	*
10EEE/L	.	.	.
10EE/	.	.	.
10Cn/	.	.	.
10A#X/J	.	.	.
!	!LO:TUP:a:problem=klamra łukowa	!	!
4g\	20c/LL]	.	.
.	20c/	.	.
.	20c/	.	.
.	20c/	.	.
.	20c/JJ	.	.
!	!LO:MO:mod=*null:null	!	!
*Xped	*Xtuplet	*	*
!	!	!	!LO:MO:mod=!null:null
!	!LO:TUP:b:problem=klamra łukowa	!	!LO:HP:a
4r	48c/LLL	.	<
.	48d/	.	.
.	48c/	.	.
.	48d/JJ	.	.
!	!LO:TX:b:i:t=accelerando.:mod=accelerando	!	!
.	48e/LL	.	.
.	48d/	.	.
.	48c/	.	.
.	48B/JJ	.	.
.	48B/LL	.	.
.	48d/	.	.
.	48c/	.	.
.	48B/JJJ	.	[[
!!LO:LB:g=original
=12	=12	=12	=12
!!!OMD:
!!!OMD-mod: A tempo
!	!LO:TX:b:B:t=a tempo.:mod=	!	!
4ryy	8B</L	.	p <
.	8A#X</	.	.
*ped	*	*	*
4A#y 4F# 4E 4FF#\	8.d</	.	[
.	.	.	>
.	16A#</Jk	.	.
*Xped	*	*	*
4ryy	8c#</L	.	.
.	8B</J	.	]
*ped	*	*	*
(8qBBB/	.	.	.
8.B 8.F# 8.D;\)	8.ff# 8.b 8.f#;/	.	.
16ryy	(16An/	.	.
*Xped	*	*	*
=13	=13	=13	=13
*ped	*	*	*
4D 4DD/	4f#/)	.	p
*Xped	*	*	*
!	!LO:TX:a:Bi:t=plus animè.	!	!
4d 4A 4F#\	(4f#'/	.	.
*ped	*	*	*
4C# 4CC#/	4f#'/	.	.
*Xped	*	*	*
8eL 8A 8F#\	[4f#'/)	.	.
16r	.	.	.
16CnJk 16CCn\	.	.	.
=14	=14	=14	=14
*ped	*	*	*
4BB 4BBB/	(16f#/LL]	.	<
.	16g/	.	.
.	16f#/	.	.
!	!LO:TX:b:i:t=riten.	!	!
.	16g/JJ)	.	.
*Xped	*	*	*
4d#X 4B 4F#\	(32.b/LLL	.	[ >
.	64a/K	.	.
.	32g/	.	.
.	32f#/	.	.
.	32f#/	.	.
.	32a/	.	.
.	32g/	.	.
.	32f#/JJJ)	.	]
*ped	*	*	*
4EE/	(8f#/L	.	.
.	8e/J)	.	.
*Xped	*	*	*
4B 4G\	8.r	.	.
.	16g/	.	.
=15	=15	=15	=15
*	*^	*	*
*	*	*^	*	*
*ped	*	*	*	*	*
4AA 4AAA/	(8gg/	8g\	2ccn\	.	f
.	4ffn/	4.fn\	.	.	.
*Xped	*	*	*	*	*
4cn 4A\	.	.	.	.	.
.	8ee/)	.	.	.	.
*ped	*	*	*	*	*
4BB 4BBB/	8ee/L	4b 4f#X\	2ryy	.	.
.	8dd#X/J	.	.	.	.
*Xped	*	*	*	*	*
8d#X 8B 8F#\	4r;	4ryy	.	.	.
8r;	.	.	.	.	.
!!LO:LB:g=original
=16	=16	=16	=16	=16	=16
*ped	*	*	*	*	*
!	!	!	!	!	!LO:DY:t=pp e un poco riten.
4GG 4GGG/	(8ffn/	8fn\	2b-X\	.	pp
.	4ee-X/	4.e-X\	.	.	.
*Xped	*	*	*	*	*
4B-X 4G\	.	.	.	.	.
.	8dd/)	.	.	.	.
*ped	*	*	*	*	*
4AA 4AAA/	8dd/	2a 2en\	2ryy	.	.
.	4.cc#/	.	.	.	.
*Xped	*	*	*	*	*
4c# 4A\	.	.	.	.	.
*	*	*v	*v	*	*
=17	=17	=17	=17	=17
!!!OMD:
!!!OMD-mod: A tempo
*ped	*	*	*	*
!	!LO:TX:b:B:t=a tempo.:mod=	!	!	!
4GG#X 4GGG#X/	[4cc#/	2b 2e#X\	.	.
4c# 4B 4G#X\	(16cc#/LL]	.	.	.
*Xped	*	*	*	*
.	16dd/	.	.	.
.	32cc#/L	.	.	.
.	32dd/	.	.	.
.	32een/	.	.	.
.	32dd/JJJ)	.	.	.
*ped	*	*	*	*
4GGn 4GGGn/	8cc#/	2b 2en\	.	<
.	4.cc#/	.	.	.
4c# 4B 4Gn\	.	.	.	.
*Xped	*	*	*	*
=18	=18	=18	=18	=18
*ped	*	*	*	*
4FF#/	[4cc#/	2b 2f#\	.	.
*Xped	*	*	*	*
4c# 4B 4F#\	(16cc#/LL]	.	.	.
.	16dd/	.	.	.
.	32cc#/L	.	.	.
.	32dd/	.	.	.
.	32ee/	.	.	.
.	32dd/JJJ)	.	.	.
*ped	*	*	*	*
4EE/	8cc#/	2a#X 2g\	.	.
.	4.cc#/	.	.	.
*Xped	*	*	*	*
4c# 4A#X 4E\	.	.	.	[
*	*v	*v	*	*
=19	=19	=19	=19
.	(8qcc# 8qf#/	.	.
*ped	*	*	*
4DD/	[2ff#\)	.	f
4c# 4A#X 4F# 4D\	.	.	.
*Xped	*	*	*
4B 4F# 4D\	(16ff#\LL]	.	.
.	16gg#X\	.	.
.	16ff#\	.	.
.	16ee#X\JJ	.	.
8AnL 8F# 8C#\	16ff#\LL	.	.
.	16gg#\	.	.
8G#XJ 8F# 8BB\	16aa\	.	.
.	16bb\JJ)	.	.
!!LO:PB:g=original
=20	=20	=20	=20
*	*	*	*^
.	(8qccc#/	.	.	.
!	!	!	!LO:MO:null:mod=.	!
4c# 4F# 4AA\	[4fff#;\)	.	f	.
(8qBB 8qBBB/	.	.	.	.
*ped	*cue	*	*	*
4d 4F# 4BB 4BBB;\)	(64fff#\LLLL]	3	>	.
.	64eee#X\	2	.	.
.	64ddd\	1	.	.
.	64ccc#\	.	.	.
.	64eeen\	5	.	.
.	64ddd\	.	.	.
.	64ccc#\	.	.	.
.	64bb\	.	.	.
.	64ccc#\	3	.	.
.	64bb\	.	.	.
.	64aa\	.	.	.
.	64gg#X\	3	.	.
.	64aa\	4	.	.
.	64gg#\	.	.	.
.	64ff#\	.	.	.
.	64ee#X\	.	.	.
2ryy	64ff#\	3	.	.
.	64ee#\	.	.	.
.	64dd\	.	.	.
.	64cc#\	.	.	.
.	64een\	5	.	.
.	64dd\	.	.	.
.	64cc#\	.	.	.
.	64b\	.	.	.
.	64cc#\	3	.	.
.	64b\	.	.	.
.	64a\	.	.	.
.	64g#X\	3	.	.
!	!	!	!	!LO:MO:null:mod=.
.	64a\	4	.	p
.	64g#\	.	.	.
.	64f#\	.	.	.
.	64e#X\	.	.	.
.	64a\	.	.	.
.	64g#\	.	.	.
*Xped	*	*	*	*
.	64f#\	.	.	.
.	64e#\	.	.	.
!	!LO:TX:b:i:t=ritard.	!	!	!
.	64a\	.	.	.
.	64g#\	.	.	.
.	64f#\	.	.	.
.	64e#\	.	.	.
.	64a\	.	.	.
.	64g#\	.	.	.
.	64f#\	.	.	.
.	64e#\	.	.	.
.	64a\	.	.	.
.	64g#\	.	.	.
.	64f#\	.	.	.
.	64e#\JJ)	.	.	.
8ryy	16e#\	.	.	.
.	16e#\JJ	.	]	.
*	*Xcue	*	*	*
*	*tuplet	*	*	*
!	!LO:TUP:a:problem=klamra łukowa	!	!	!
8r	10e#/L	.	pp	.
.	10e#/	.	.	.
*ped	*	*	*	*
[4d 4G [4BB\	.	.	.	.
.	10e#/	.	.	.
.	10e#/	.	.	.
*Xped	*	*	*	*
8d] 8G#X 8BB\]	.	.	.	.
.	10e#/J	.	.	.
*	*	*	*v	*v
=21	=21	=21	=21
*	*^	*	*
4.A 4.AA\	8.f#/L	4.c#\	.	<
.	16g#X/K	.	.	.
.	8a/	.	.	.
8G#X 8GG#X\	8b/J	8f# 8d\	.	[
8AL 8AA\	8.cc#/L	4f# 4c#\	.	>
8BB\J	.	.	.	.
.	(16cc#/Jk	.	.	.
(<4C#/	8..e#X/L)	4B\	.	.
.	32gn/Jkk	.	.	]
!!LO:LB:g=original
=22	=22	=22	=22	=22
*^	*	*	*	*
4C# 4FF#\)	4ryy	32gn/KKL	4A#X\	.	.
!	!	!LO:TX:b:i:t=legato.:mod=legato	!	!	!
.	.	8..f#/J	.	.	.
4c#/	2.F#\	2ff#/	4a#X 4f#\	.	p
4e#X 4d 4B/	.	.	4b 4g#X\	.	.
4en 4c#/	.	4ff#/	4a#\	.	.
*v	*v	*	*	*	*
*	*v	*v	*	*
=23	=23	=23	=23
*ped	*	*	*
!LO:TUP:a:problem=klamra łukowa	!	!	!
20eLL 20B 20G\	(8..bbL 8..ff# 8..b\	.	pp
20GG\	.	.	.
20E\	.	.	.
20B\	.	.	.
20g\JJ	.	.	.
.	32ee\Jkk)	.	.
!	!LO:TUP:a:problem=klamra łukowa	!	!
4r	28ee\LL	.	.
.	28ee\	.	.
.	28ee\	.	.
.	28ee\	.	.
.	28ee\	.	.
.	28ee\	.	.
*Xped	*	*	*
.	28ee\JJ	.	.
!LO:TUP:a:problem=klamra łukowa	!	!	!
20AAA\LL	[8ee\L	.	.
*ped	*	*	*
20AA\	.	.	.
20E\	.	.	.
.	(32ee\LL]	.	.
20c#\	.	.	.
.	32ff#\	.	.
.	32ee\	.	.
20g\JJ	.	.	.
.	32ff#\JJJ)	.	.
!	!LO:MO:mod=*null:null	!	!
*	*rscale:2	*	*
!	!LO:MO:mod=*null:null	!	!
*	*Xtuplet	*	*
4r	(76aaLLL	.	.
.	76gg	.	.
.	76fff#	5	.
!	!LO:TX:b:i:t=egualmente.:mod=egualmente	!	!
.	76r	.	.
.	76eee	5	.
.	76ddd	4	.
.	76ccc#	.	.
.	76bb	.	.
.	76aa	1	.
.	76gg#	4	.
.	76gg	3	.
.	76ee	2	.
.	76b	1	.
.	76b#	.	.
.	76cc#	.	.
.	76dd	.	.
.	76dd#	.	.
.	76ee	1	.
*Xped	*	*	*
.	76ee#JJJ)	2	.
!!LO:LB:g=original
=24	=24	=24	=24
*ped	*rscale:1	*	*
(16DD\LL	(32gg^\KKL	.	.
.	[8..ff#\J)	.	.
16D\	.	.	.
[[<16F#\	.	.	.
[16f#\JJ)	.	.	.
4f#] 4A 4F#\]]	8ff#\L]	.	.
*Xped	*	*	*
.	[8ff#\J	.	.
*ped	*tuplet	*	*
!	!LO:TUP:a:problem=klamra łukowa	!	!
(16DD\LL	6ff#\]	.	.
16D\	.	.	.
[[<16F#\	.	.	.
.	[12ff#\	.	.
[16f#\JJ)	.	.	.
4f#] 4A#X 4F#\]]	16ff#\LL]	.	<
.	16ff#\	.	.
.	16ff#\	.	.
*Xped	*	*	*
.	16ff#\JJ	.	[[
=25	=25	=25	=25
[[16CC#\LL	(8..ff#\L	.	>
*ped	*	*	*
[[16C#\	.	.	.
[[16G\	.	.	.
[16e\JJ	.	.	.
.	32b\Jkk)	.	]
!	!LO:TUP:a:problem=klamra łukowa	!	!
4e] 4G]] 4C#]] 4CC#\]]	28b\LL	.	.
.	28b\	.	.
.	28b\	.	.
.	28b\	.	.
.	28b\	.	.
.	28b\	.	.
*Xped	*	*	*
.	28b\JJ	.	.
*ped	*	*	*
[[<16FF#\LL	(16.b\LL	.	.
[[16C#\	.	.	.
.	32a#X\JJk	.	.
!	!LO:TUP:a:problem=klamra łukowa	!	!
[[16F#\	48a#\LLL	.	.
.	48b\	.	.
*Xped	*	*	*
.	48a#\JJ	.	.
!	!LO:MO:mod=*null:null	!	!
*	*rscale:2	*	*
!	!LO:TUP:a:problem=klamra łukowa	!	!
[16e\JJ	80g#X\LLL	.	<
.	80a#\	.	.
.	80b\	.	.
.	80cc#\	.	.
.	80dd\JJJJ)	.	[
*	*rscale:1	*	*
4e] 4F#]] 4C#]] 4FF#\]]	([8ff#\L	.	>
.	64ff#\LLL]	.	.
.	64ee\	.	.
.	64dd\	.	.
.	64cc#\JJJ	.	]
.	64cc#\LLL	.	.
.	64ee\	.	.
.	64dd\	.	.
.	64cc#\JJJJ)	.	.
!!LO:LB:g=original
=26	=26	=26	=26
!LO:TUP:a:problem=klamra łukowa	!	!	!
20r	(8cc#^\L	.	.
*ped	*	*	*
20GG\LL	.	.	.
20G\	.	.	.
.	[8b\J)	.	.
20d\	.	.	.
20g\JJ	.	.	.
!	!LO:TUP:b:r=8:problem=klamra łukowa	!	!
4r	24b/LL]	.	.
.	24b/	.	.
*Xped	*	*	*
!	!	!	!LO:HP:t=cresc. molto
.	24b-X/	.	<
!	!LO:TUP:b:r=8	!	!
.	24a/	.	.
.	24g#X/	.	.
.	24gn/JJ	.	.
16r	[4f#/	.	.
*ped	*	*	*
(16DD\LL	.	.	.
16D\	.	.	.
16A\JJ)	.	.	.
!	!LO:TUP:b:problem=klamra łukowa	!	!
4r	28f#/LL]	.	.
.	28f#/	.	.
*Xped	*	*	*
.	28fn/	.	.
.	28e/	.	.
.	28e-X/	.	.
.	28d/	.	.
.	28c#/JJ	.	.
=27	=27	=27	=27
!LO:TUP:a:problem=klamra łukowa	!	!	!
10r	[2cn/	.	f
*ped	*	*	*
10EEE/L	.	.	.
10EE/	.	.	.
10Cn/	.	.	.
10A#X/J	.	.	.
!	!LO:TUP:a:problem=klamra łukowa	!	!
4g\	20c/LL]	.	.
.	20c/	.	.
.	20c/	.	.
.	20c/	.	.
.	20c/JJ	.	.
!	!LO:MO:mod=*null:null	!	!
*Xped	*Xtuplet	*	*
4r	(48c;/LLL	.	.
.	48d/	.	.
.	48c/	.	.
.	48d/JJ	.	.
!	!LO:TX:b:i:t=accelerando.:mod=accelerando	!	!
.	48e/LL	.	.
.	48d/	.	.
.	48c/	.	.
.	48B/JJ	.	.
.	48B/LL	.	.
.	48d/	.	.
.	48c/	.	.
.	48B/JJJ)	.	.
=28	=28	=28	=28
!!!OMD:
!!!OMD-mod: A tempo
!	!LO:TX:b:B:t=a tempo.:mod=	!	!
2r	4B</	.	p
.	[4A#X</	.	.
*ped	*	*	*
2FF#\	2d< 2A#<] 2F#< 2E</	.	.
!!LO:PB:g=original
=29||	=29||	=29||	=29||
!!!OMD: Tempo di Chora Allegretto comodo. ([quarter]=88.)
!!!OMD-mod: Tempo di Chora Allegretto comodo. ([quarter]=88.)
*k[f#c#g#d#a#]	*k[f#c#g#d#a#]	*	*
*M2/4	*M2/4	*	*
8BB 8BBB\	8d#< 8B< 8F#< 8D#</	.	.
!	!	!	!LO:MO:mod=!LO&colon;DY&colon;t=sempre pp
!LO:TX:b:i:t=Pedale a chaque mesure.:mod=Pedale a chaque mesure	!	!	!LO:DY:t=sempre pianissimo.
(8BL 8D#'\	8r	.	pp
8d# 8F#'\	4r	.	.
8BJ 8D#'\)	.	.	.
=30	=30	=30	=30
8BBB/	2r	.	.
(8BL 8D#'\	.	.	.
8d# 8F#'\	.	.	.
8BJ 8D#'\)	.	.	.
=31	=31	=31	=31
8BBB/	2r	.	.
(8BL 8D#'\	.	.	.
8d# 8F#'\	.	.	.
8BJ 8D#'\)	.	.	.
=32	=32	=32	=32
8BBB/	2r	.	.
(8BL 8D#'\	.	.	.
8d# 8F#'\	.	.	.
8BJ 8D#'\)	.	.	.
=33	=33	=33	=33
!LO:MO:null:mod=!LO&colon;TX&colon;i&colon;t=[simile]	!	!	!
!	!	!	!
8BBB/	(4dd#'\	.	<
8BL 8D#\	.	.	.
8d# 8F#\	4dd#'\	.	.
8BJ 8D#\	.	.	.
=34	=34	=34	=34
8BBB/	4dd#'\	.	.
8BL 8D#\	.	.	.
8d# 8F#\	4dd#'\)	.	[[
8BJ 8D#\	.	.	.
=35	=35	=35	=35
8BBB/	(16dd#\LL	.	.
.	16ff#\	.	.
8BL 8E\	16ee\	.	.
.	16dd#\JJ	.	.
8e 8Gn\	16cc#\LL)	.	>
.	16r	.	.
8BJ 8E\	(16cc#\	.	.
.	16b\JJ)	.	.
!!LO:LB:g=original
=36	=36	=36	=36
8BBB/	[2dd#\	.	.
8BL 8D#\	.	.	.
8d# 8F#\	.	.	.
8BJ 8D#\	.	.	]]
=37	=37	=37	=37
8BBB/	(16dd#\LL]	.	.
.	16ff#\	.	.
8BL 8E\	16ee\	.	.
.	16dd#\JJ)	.	.
.	(32qqcc#/LLL	.	.
.	32qqdd#/JJJ	.	.
!	!LO:TX:b:i:t=rit.	!	!
8e 8Gn\	(16cc#^\LL)	.	.
.	16b\	1	.
8BJ 8E\	16an\	4	.
.	16gn\JJ)	.	.
=38	=38	=38	=38
!!!OMD:
!!!OMD-mod: A tempo
!	!LO:TX:b:B:t=a tempo.:mod=	!	!
.	(8qd#/	1	.
8BBB/	4f#/)	2	.
8BL 8D#\	.	.	.
8d# 8F#\	(8b^/L	.	.
8BJ 8D#\	16an/L	.	.
.	16gn/JJ)	.	.
=39	=39	=39	=39
8BBB/	(8f#/L	.	.
8F#L 8BB\	16e/L	.	.
.	16d#/JJ	.	.
8A# 8E\	16c#/LL)	.	.
.	16r	.	.
8F#J 8BB\	(16c#/	.	.
.	16B/JJ)	.	.
=40	=40	=40	=40
8BBB/	(2d#/	.	.
8F#L 8BB\	.	.	.
8B 8D#\	.	.	.
8F#J 8BB\	.	.	.
=41	=41	=41	=41
8BBB/	(4dd#'\)	.	<
8BL 8D#\	.	.	.
8d# 8F#\	4dd#'\	.	.
8BJ 8D#\	.	.	.
!!LO:LB:g=original
=42	=42	=42	=42
8BBB/	4dd#'\	.	.
8BL 8D#\	.	.	.
8d# 8F#\	[4dd#'\)	.	[
8BJ 8D#\	.	.	.
=43	=43	=43	=43
8BBB/	(16dd#\LL]	.	>
.	16ff#\	.	.
8BL 8E\	16ee\	.	.
.	16dd#\JJ)	.	.
8e 8Gn\	16cc#\LL	.	.
.	16r	.	.
8BJ 8E\	(16cc#\	.	.
.	16b\JJ)	.	]]
=44	=44	=44	=44
8BBB/	[2dd#\	.	.
8BL 8D#\	.	.	.
8d# 8F#\	.	.	.
8BJ 8D#\	.	.	.
=45	=45	=45	=45
8BBB/	16dd#\LL]	.	.
.	(16ff#\	.	.
8BL 8E\	16ee\	.	.
.	16dd#\JJ	.	.
.	32qqcc#/LLL	.	.
.	32qqdd#/JJJ	.	.
!	!LO:TX:b:i:t=rit.	!	!
8e 8Gn\	16cc#\LL	.	.
.	16b\	.	.
8BJ 8E\	16an\	.	.
.	16gn\JJ)	.	.
=46	=46	=46	=46
!!!OMD:
!!!OMD-mod: A tempo
!	!LO:TX:b:B:t=a tempo.:mod=	!	!
.	(8qd#/	.	.
8BBB/	4f#/)	.	.
8BL 8D#\	.	.	.
8d# 8F#\	(8b^/L	.	>
8BJ 8D#\	16an/L	.	.
.	16gn/JJ)	.	]]
=47	=47	=47	=47
8BBB/	(8f#/L	.	.
8F#L 8BB\	16e/L	.	.
.	16d#/JJ	.	.
8A# 8E\	16c#/LL)	.	.
.	16r	.	.
8F#J 8BB\	(16c#/	.	.
.	16B/JJ)	.	.
!!LO:LB:g=original
=48	=48	=48	=48
8BBB/	2d#/	.	.
8F#L 8BB\	.	.	.
8B 8D#\	.	.	.
8F#J 8BB\	.	.	.
=49	=49	=49	=49
!	!	!	!LO:DY:t=sempre p
8FF#\L	4cc#: 4a#: 4f#: 4c#:/	.	p
8A# 8F# 8C#\	.	.	.
8c# 8A# 8F#\	4cc# 4a# 4f#/	.	.
8A#J 8F# 8C#\	.	.	.
=50	=50	=50	=50
8FF#\L	4cc# 4a# 4f# 4c#/	.	.
8A# 8F# 8C#\	.	.	.
8c# 8A# 8F#\	4cc# 4a# 4f#/	.	.
8A#J 8F# 8C#\	.	.	.
=51	=51	=51	=51
8FF#\L	4cc# 4an 4f# 4c#/	.	.
8An 8F# 8C#\	.	.	.
8c# 8A 8F#\	4cc# 4a 4f#/	.	.
8AJ 8F# 8C#\	.	.	.
=52	=52	=52	=52
!	!LO:SIC:v:s=4cc# 4a 4f# 4c#/	!	!
8FF#\L	4cc# 4a# 4f# 4c#/	.	.
8An 8F# 8C#\	.	.	.
!	!LO:SIC:v:s=4cc# 4a 4f#/	!	!
8c# 8A 8F#\	4cc# 4a# 4f#/	.	.
8AJ 8F# 8C#\	.	.	.
=53	=53	=53	=53
8CC#/	(16cc#LL 16g# 16e\	.	<
.	16dd#\	.	.
8G#L 8C#\	16ee\	.	.
.	16ff##X\JJ)	.	.
8c# 8E\	[4gg#\	.	[[
8G#J 8C#\	.	.	.
=54	=54	=54	=54
8CC#/	(16gg#\LL]	.	>
.	16ff##X\	.	.
8G#L 8C#\	16gg#\	.	.
.	16ff##\JJ	.	.
8c# 8E\	16ee\LL	.	.
.	16dd#\	.	.
8G#J 8C#\	16ee\	.	.
.	16dd#\JJ)	.	]]
!!LO:LB:g=original
=55	=55	=55	=55
8CC#/	(16cc#\LL	.	.
.	16dd#\	.	.
8G#L 8C#\	16ee\	.	.
.	16dd#\JJ)	.	.
8c# 8E\	8cc#\L	.	.
8G#J 8C#\	8cc#\J	.	.
=56	=56	=56	=56
8CC#/	[2cc#\	.	.
8G#L 8C#\	.	.	.
8c# 8E\	.	.	.
8G#J 8C#\	.	.	.
=57	=57	=57	=57
8CC#/	16cc#\LL]	.	.
.	16dd#\	.	.
8G#L 8C#\	16ee\	.	.
.	16ff##X\JJ	.	.
8c# 8E\	[4gg#\	.	.
8G#J 8C#\	.	.	.
=58	=58	=58	=58
8CC#/	16gg#\LL]	.	>
.	(16ccc#\	.	.
8G#L 8C#\	16aan\	3	.
.	16gg#\JJ	.	.
8c# 8E\	16ff##X\LL	1	.
.	16gg#\	3	.
8G#J 8C#\	16ff##\	.	.
.	16ee\JJ	1	.
=59	=59	=59	=59
8CC#/	16dd#\LL	3	.
!	!LO:N:acc=n#	!	!
.	16ff#X\	.	.
8G#L 8C#\	16ee\	.	.
.	16dd#\JJ)	.	.
8c# 8E\	8cc#\L	.	.
8G#J 8C#\	8cc#\J	.	]]
=60	=60	=60	=60
8CC#/	2cc#\	.	.
8G#L 8C#\	.	.	.
8c# 8E\	.	.	.
8G#J 8C#\	.	.	.
!!LO:PB:g=original
=61	=61	=61	=61
8AAAn/	4ee 4cc# 4an 4e/	.	p
8c#L 8An 8E\	.	.	.
8e 8c# 8A\	4ee 4cc# 4a\	.	.
8c#J 8A 8E\	.	.	.
=62	=62	=62	=62
8AAAn/	4ee 4cc# 4an 4e/	.	.
8c#L 8An 8E\	.	.	.
8e 8c# 8A\	4ee 4cc# 4a\	.	.
8c#J 8A 8E\	.	.	.
=63	=63	=63	=63
8AAAn/	4ee 4ccn 4an 4e/	.	.
8cnL 8An 8E\	.	.	.
8e 8c 8A\	4ee 4cc 4a\	.	.
8cJ 8A 8E\	.	.	.
=64	=64	=64	=64
8AAAn/	4ee 4ccn 4e/	.	.
8cnL 8An 8E\	.	.	.
8e 8c 8A\	4ee 4cc 4f#/	.	.
8cJ 8A 8E\	.	.	.
=65	=65	=65	=65
8EE/	(16eeLL 16b 16gn\	5	<
.	16ff#\	3	.
8BL 8E\	16ggn\	1	.
.	16aa#X\JJ)	.	.
8e 8Gn\	[4bb\	.	[
8BJ 8E\	.	.	.
=66	=66	=66	=66
8EE/	(16bb\LL]	.	>
.	16aa#\	.	.
8BL 8E\	16bb\	.	.
.	16aa#\JJ	.	.
8e 8Gn\	16ggn\LL	.	.
.	16ff#\	.	.
8BJ 8E\	16gg\	.	.
.	16ff#\JJ)	.	.
!!LO:LB:g=original
=67	=67	=67	=67
8EE/	(16ee\LL	.	.
.	16ff#\	.	.
8BL 8E\	16ggn\	.	.
.	16ff#\JJ	.	.
8e 8Gn\	8ee\L)	.	.
8BJ 8E\	8ee\J	.	]
=68	=68	=68	=68
8EE/	[2ee\	.	.
8BL 8E\	.	.	.
8e 8Gn\	.	.	.
8BJ 8E\	.	.	.
=69	=69	=69	=69
8EE/	(16ee\LL]	.	.
.	16ff#\	.	.
8BL 8E\	16ggn\	.	.
.	16aa#X\JJ)	.	.
8e 8Gn\	[4bb\	.	.
8BJ 8E\	.	.	.
=70	=70	=70	=70
8EE/	16bb\LL]	.	>
.	(16eee\	.	.
8BL 8E\	16cccn\	4	.
.	16bb\JJ	3	.
8e 8Gn\	16aa#\LL	.	.
.	16bb\	3	.
8BJ 8E\	16aa#\	.	.
.	16ggn\JJ	1	.
=71	=71	=71	=71
8EE/	16ff#\LL	3	.
.	16aan\	.	.
8BL 8E\	16ggn\	.	.
.	16ff#\JJ)	.	.
8e 8Gn\	8ee\L	.	.
8BJ 8E\	8ee\J	.	]
!!LO:LB:g=original
=72	=72	=72	=72
8EE/	[2ee\	.	.
8BL 8E\	.	.	.
8e 8Gn\	.	.	.
8BJ 8E\	.	.	.
=73	=73	=73	=73
8GGn~\L	4ee\]	.	.
8cn 8E\	.	.	.
8e 8c\	[4ee^\	.	<
8cJ 8E\	.	.	.
=74	=74	=74	=74
8GG#X~\L	4ee\]	.	.
8cn 8E\	.	.	.
8e 8c\	[4ee^\	.	.
8cJ 8E\	.	.	.
=75	=75	=75	=75
8AAn~\L	4ee\]	.	.
8cn 8E\	.	.	.
8e 8c\	[4ee\	.	.
8cJ 8E\	.	.	[[
=76	=76	=76	=76
8AA#X\L	4ee\]	.	>
8c#X 8F#\	.	.	.
8e 8c#\	(4ee\	.	]]
8c#J 8F#\	.	.	.
=77	=77	=77	=77
8BB\L	4dd#\)	.	pp
8B 8D#\	.	.	.
8d# 8F#\	(4dd#'\	.	.
8BJ 8D#\	.	.	.
!!LO:LB:g=original
=78	=78	=78	=78
8BBB/	4dd#'\	.	.
8BL 8D#\	.	.	.
8d# 8F#\	[4dd#'\)	.	.
8BJ 8D#\	.	.	.
=79	=79	=79	=79
8BBB/	16dd#\LL]	.	.
.	(16ff#\	.	.
8BL 8E\	16ee\	.	.
.	16dd#\JJ	.	.
8e 8Gn\	16cc#\LL)	.	.
.	16r	.	.
8BJ 8E\	(16cc#\	.	.
.	16b\JJ)	.	.
=80	=80	=80	=80
8BBB/	[2dd#\	.	.
8BL 8D#\	.	.	.
8d# 8F#\	.	.	.
8BJ 8D#\	.	.	.
=81	=81	=81	=81
8BBB/	16dd#\LL]	.	.
.	(16ff#\	.	.
8BL 8E\	16ee\	.	.
.	16dd#\JJ	.	.
.	32qqcc#/LLL	.	.
.	32qqdd#/JJJ	.	.
8e 8Gn\	16cc#\LL	.	.
.	16b\	1	.
8BJ 8E\	16an\	4	.
.	16gn\JJ)	3	.
=82	=82	=82	=82
.	(8qd#/	1	.
8BBB/	4f#/)	2	.
8BL 8D#\	.	.	.
8d# 8F#\	(8b^/L	.	.
8BJ 8D#\	16an/L	.	.
.	16gn/JJ)	.	.
!!LO:LB:g=original
=83	=83	=83	=83
8BBB/	(8f#/L	.	.
8F#L 8BB\	16e/L	.	.
.	16d#/JJ	.	.
8A# 8E\	16c#/LL)	.	.
.	16r	.	.
8F#J 8BB\	(16c#/	.	.
.	16B/JJ)	.	.
=84	=84	=84	=84
8BBB/	2d#/	.	.
8F#L 8BB\	.	.	.
8B 8D#\	.	.	.
8F#J 8BB\	.	.	.
=85	=85	=85	=85
.	(32qqd#/LLL	.	<
.	32qqf#/	.	.
.	32qqb/JJJ)	.	.
8BBB/	(4dd#'\	.	.
8BL 8D#\	.	.	.
8d# 8F#\	4dd#'\)	.	.
8BJ 8D#\	.	.	.
=86	=86	=86	=86
.	(32qqd#/LLL	.	.
.	32qqf##X/	.	.
.	32qqb/JJJ)	.	.
8AAA#/	(4dd#'\	.	.
8BL 8D#\	.	.	.
8d# 8F##X\	4dd#'\)	.	.
8BJ 8D#\	.	.	.
=87	=87	=87	=87
.	(32qqd#/LLL	.	.
.	32qqg#/	.	.
.	32qqb/JJJ)	.	.
8GGG#/	(16dd#\LL	.	.
.	16ff#\	.	.
8BL 8D#\	16ee\	.	.
.	16dd#\JJ	.	[
8d# 8G#\	16cc#\LL)	.	.
.	16r	.	.
8BJ 8D#\	(16cc#\	.	.
.	16b\JJ)	.	.
=88	=88	=88	=88
*	*^	*	*
.	.	(32qqd#/LLL	.	.
.	.	32qqf#/	.	.
.	.	(32qqa#/JJJ)	.	.
8FFF#/	(2dd#/	2a#\)	.	.
8A#L 8D#\	.	.	.	.
8d# 8F#\	.	.	.	.
8A#J 8D#\	.	.	.	.
!!LO:PB:g=original
=89	=89	=89	=89	=89
*	*	*	*^	*
8EE 8EEE/	16dd#/LL)	4g#\	.	.	>
.	16ff#/	.	5	.	.
8BL 8E\	16ee/	.	4	.	.
.	16dd#/JJ	.	3	.	.
.	16qqcc#/LL	.	4	.	.
.	16qqdd#/JJ	.	5	.	.
8e 8Gn\	16cc#/LL	8gn\L	4	.	.
.	16b/	.	5	.	.
8BJ 8E\	16an/	8c#\J	4	1	.
.	16g/JJ	.	3	.	]]
*	*	*	*v	*v	*
*	*v	*v	*	*
=90	=90	=90	=90
8BBB 8BBBB/	4f# 4d#/	.	.
8BL 8D#\	.	.	.
8d# 8F#\	(8b^>/L	.	>
8BJ 8D#\	16an/L	.	.
.	16gn/JJ)	.	]]
=91	=91	=91	=91
8BBB/	(8f#/L	.	.
8F#L 8BB\	16e/L	.	.
.	16d#/JJ	.	.
8A# 8E\	16c#/LL)	.	.
.	16r	.	.
8F#J 8BB\	(16c#/	.	.
.	16B/JJ	.	.
=92	=92	=92	=92
8BBB/	[2d#/)	.	.
8F#L 8BB\	.	.	.
8B 8D#\	.	.	.
8F#J 8BB\	.	.	.
=93	=93	=93	=93
8BBB/	(16d#/LL]	.	ppp
.	16f#/	.	.
8F#L 8BB\	16e/	.	.
.	16d#/JJ	.	.
8A# 8E\	16c#/LL)	.	.
.	16r	.	.
8F#J 8BB\	(16c#/	.	.
.	16B/JJ)	.	.
!!LO:LB:g=original
=94	=94	=94	=94
8BBB/	4d#/	.	.
8F#L 8BB\	.	.	.
8B 8D#\	[4d#^/	.	.
8F#J 8BB\	.	.	.
=95	=95	=95	=95
8BBB/	(16d#/LL]	.	.
.	16f#/	.	.
8F#L 8BB\	16e/	.	.
.	16d#/JJ	.	.
8A# 8E\	16c#/LL)	.	.
.	16r	.	.
8F#J 8BB\	(16c#/	.	.
.	16B/JJ)	.	.
=96	=96	=96	=96
8BBB/	[2d#/	.	.
8F#L 8BB\	.	.	.
8B 8D#\	.	.	.
8F#J 8BB\	.	.	.
=97	=97	=97	=97
8BBB/	(16d#/LL]	.	.
.	16f#/	.	.
8F#L 8BB\	16e/	.	.
.	16d#/JJ	.	.
8A# 8E\	16c#/LL)	.	.
.	16r	.	.
8F#J 8BB\	(16c#/	.	.
.	16B/JJ)	.	.
=98	=98	=98	=98
8BBB/	4d#/	.	.
8F#L 8BB\	.	.	.
8B 8D#\	[4d#^/	.	.
8F#J 8BB\	.	.	.
!!LO:LB:g=original
=99	=99	=99	=99
8BBB/	(16d#/LL]	.	.
.	16f#/	.	.
8F#L 8BB\	16e/	.	.
.	16d#/JJ	.	.
8A# 8E\	16c#/LL)	.	.
.	16r	.	.
8F#J 8BB\	(16c#/	.	.
.	16B/JJ	.	.
=100	=100	=100	=100
8BBB/	[2B/)	.	.
8F#L 8BB\	.	.	.
8B 8D#\	.	.	.
8F#J 8BB\	.	.	.
=101	=101	=101	=101
8AAAn/	4B/]	.	.
8F#L 8AAn\	.	.	.
8B 8D#\	(4B/	.	.
8F#J 8AA\	.	.	.
=102	=102	=102	=102
8GGGn/	4b/	.	.
8EL 8GGn\	.	.	.
8B 8BB\	[4B/)	.	.
8EJ 8GG\	.	.	.
=103	=103	=103	=103
4FFF#/	2B/_	.	.
4D# 4FF#/	.	.	.
=104	=104	=104	=104
4An 4BB\	2b 2B/_	.	.
4D# 4FF#/	.	.	.
!!LO:LB:g=original
=105||	=105||	=105||	=105||
!!!OMD: Tempo I.
*k[f#c#]	*k[f#c#]	*	*
*^	*^	*	*
!	!	!LO:TX:a:i:t=con espressione.:mod=con espressione	!	!	!LO:DY:rj
(2D/	[2GGn\	4..b/	2B\_	.	p
.	.	16e/	.	.	.
=106	=106	=106	=106	=106	=106
(2E/)	2GG\_	([2e/	2B\_	.	.
=107	=107	=107	=107	=107	=107
[2C#/)	2GG\]	8e/L]	2B\]	.	.
.	.	8f#/	.	.	.
.	.	8e/	.	.	.
.	.	8f#/J)	.	.	.
.	.	.	.	.	<
=108	=108	=108	=108	=108	=108
2C#/]	2FF#\	16.an;/LL	2A#X\	.	.
.	.	(32gn/K	.	.	[
.	.	16f#/	.	.	>
.	.	16e/JJ)	.	.	.
.	.	(32.f#/LL	.	.	.
.	.	64e/K	.	.	.
.	.	32d/	.	.	.
.	.	32c#/JJ	.	.	.
.	.	32c#/LL	.	.	.
.	.	32e/	.	.	.
.	.	32d/	.	.	.
.	.	32c#/JJ)	.	.	]]
*	*	*v	*v	*	*
=109	=109	=109	=109	=109
[2F# [2D/	[2BB [2BBB\	(4c#/	.	.
.	.	[4B/)	.	.
=110	=110	=110	=110	=110
2F#] 2D/]	2BB] 2BBB\]	8B/L]	.	.
.	.	(8B'/	.	<
.	.	8B'/	.	.
.	.	8B'/J)	.	[[
*v	*v	*	*	*
!!LO:LB:g=original
=111	=111	=111	=111
!	!LO:TX:a:i:t=ten.	!	!LO:DY:rj
2EE 2EEE;<\	[<2cn 2G< N[2Cn<;/	.	f
=112-	=112-	=112-	=112-
!	!	!	!LO:MO:mod=!null:null
!	!	!	!LO:HP:b=2
(4C/N]	(4c/]	.	<
4D/	4d/	.	.
=113-	=113-	=113-	=113-
4Cny/	4c/	.	.
4D/)	4d/)	.	.
=114-	=114-	=114-	=114-
[2E;\	[2e^;/	.	[
=115-	=115-	=115-	=115-
!	!	!	!LO:MO:mod=!null:null
!	!	!	!LO:HP:b=2
(8E\L]	(8e/L]	.	>
8D\	8d/	.	.
8C\	8c/	.	.
8BB\J)	8B/J)	.	]
=116-	=116-	=116-	=116-
[2E;\	[2e^;/	.	.
=117-	=117-	=117-	=117-
!	!	!	!LO:MO:mod=!null:null
!	!	!	!LO:HP:b=2
(8E\L]	(8e/L]	.	>
8D\	8d/	.	.
8C\	8c/	.	.
8BB\J)	8B/J)	.	]
=118-	=118-	=118-	=118-
!	!	!	!LO:MO:mod=!null:null
!	!	!	!LO:HP:b=2
(8E\L	(>8e/L	.	>
!	!LO:TX:b:i:t=accelerando.	!	!
8D\	8d/	.	.
8C\	8c/	.	.
8BB\J	8B/J	.	.
=119-	=119-	=119-	=119-
8BB/L	8B/L	.	.
8D/	8d/	.	.
8C/	8c/	.	.
8BB/J)	8B/J)	.	]]
=120	=120	=120	=120
(4BB^/	(4B^/	.	.
[4AA#X/)	[4A#X/)	.	.
=121	=121	=121	=121
4AA#X/]	4A#X/]	.	.
4FF# 4FFF#\	4d< 4A#X< 4F#< 4E</	.	pp
=122	=122	=122	=122
!	!LO:SIC:s=2d< 2B< 2F#< 2D</	!	!
2FF# 2BBB;<\	2d< 2B< 2F#< 2D<;/	.	.
==	==	==	==
*-	*-	*-	*-
!!!system-decoration: {(*)}
!!!RDF**kern: > = above
!!!RDF**kern: < = below
!!!RDF**kern: N = linked
!!!ENC: Andrzej Gręziak
!!!END: 2022-07-23
!!!ENC: Andrzej Kubiczek
!!!END: 2022-08-17
!!!ENC-modern: Andrzej Borzym
!!!END-modern: 2022-08-27
!!!YEC: Copyright 2022 Narodowy Instytut Fryderyka Chopina (https://polishscores.org)
!!!YEM: License CC-BY-4.0 (https://creativecommons.org/licenses/by/4.0)
